src/actions/symbolic/shuffler-togglesticky-symbolic.svg

<svg width="16" height="16" version="1.1" viewBox="0 0 16 16" xmlns="http://www.w3.org/2000/svg">
 <path d="m3 3v3h3v-3h-3zm1 1h1v1h-1v-1z" fill="#363636" stop-color="#000000" stroke-linecap="round" stroke-linejoin="round" stroke-width="2"/>
 <path d="m7 7v6h6v-6h-6zm1 1h4v4h-4v-4z" fill="#363636" stop-color="#000000" stroke-linecap="round" stroke-linejoin="round" stroke-width="2"/>
 <path d="m3 7v3h3v-3zm1 1h1v1h-1z" fill="#363636" stop-color="#000000" stroke-linecap="round" stroke-linejoin="round" stroke-width="2"/>
 <path d="m7 3v3h3v-3zm1 1h1v1h-1z" fill="#363636" stop-color="#000000" stroke-linecap="round" stroke-linejoin="round" stroke-width="2"/>
</svg>

<svg xmlns="http://www.w3.org/2000/svg" width="16" height="16">
    <path fill="#050505" fill-opacity=".7" d="M3 3v3h3V3H3zm1 1h1v1H4V4zM7 7v6h6V7H7zm1 1h4v4H8V8zM3 7v3h3V7zm1 1h1v1H4zM7 3v3h3V3zm1 1h1v1H8z"/>
</svg>
